packages/icons/svg/Fill/shopping-cart-plus.svg

<svg width="24" height="24" viewBox="0 0 24 24" fill="none" xmlns="http://www.w3.org/2000/svg">
<path fill-rule="evenodd" clip-rule="evenodd" d="M16.0002 2V1C16.0002 0.45 15.5502 0 15.0002 0C14.4502 0 14.0002 0.45 14.0002 1V2H13.0002C12.4502 2 12.0002 2.45 12.0002 3C12.0002 3.55 12.4502 4 13.0002 4H14.0002V5C14.0002 5.55 14.4502 6 15.0002 6C15.5502 6 16.0002 5.55 16.0002 5V4H17.0002C17.5502 4 18.0002 3.55 18.0002 3C18.0002 2.45 17.5502 2 17.0002 2H16.0002ZM23.083 8.948C22.716 8.354 22.08 8 21.382 8H8.582L7.965 5.737C7.846 5.302 7.451 5 7 5H5C4.447 5 4 5.448 4 6C4 6.552 4.447 7 5 7H6.236L9.035 17.263C9.154 17.698 9.549 18 10 18H19C19.379 18 19.725 17.786 19.895 17.447L23.171 10.894C23.484 10.269 23.45 9.542 23.083 8.948ZM9.50024 20C8.67224 20 8.00024 20.671 8.00024 21.5C8.00024 22.329 8.67224 23 9.50024 23C10.3282 23 11.0002 22.329 11.0002 21.5C11.0002 20.671 10.3282 20 9.50024 20ZM18.0002 21.5C18.0002 20.671 18.6722 20 19.5002 20C20.3282 20 21.0002 20.671 21.0002 21.5C21.0002 22.329 20.3282 23 19.5002 23C18.6722 23 18.0002 22.329 18.0002 21.5ZM5 21H1C0.45 21 0 21.45 0 22C0 22.55 0.45 23 1 23H5C5.55 23 6 22.55 6 22C6 21.45 5.55 21 5 21ZM1 16H3C3.55 16 4 16.45 4 17C4 17.55 3.55 18 3 18H1C0.45 18 0 17.55 0 17C0 16.45 0.45 16 1 16Z" fill="#000000"/>
</svg>

<svg fill="none" height="24" viewBox="0 0 24 24" width="24" xmlns="http://www.w3.org/2000/svg"><path clip-rule="evenodd" d="m16.0002 2v-1c0-.55-.45-1-1-1s-1 .45-1 1v1h-1c-.55 0-1 .45-1 1s.45 1 1 1h1v1c0 .55.45 1 1 1s1-.45 1-1v-1h1c.55 0 1-.45 1-1s-.45-1-1-1zm7.0828 6.948c-.367-.594-1.003-.948-1.701-.948h-12.8l-.617-2.263c-.119-.435-.514-.737-.965-.737h-2c-.553 0-1 .448-1 1s.447 1 1 1h1.236l2.799 10.263c.119.435.514.737.965.737h9c.379 0 .725-.214.895-.553l3.276-6.553c.313-.625.279-1.352-.088-1.946zm-13.58276 11.052c-.828 0-1.5.671-1.5 1.5s.672 1.5 1.5 1.5c.82796 0 1.49996-.671 1.49996-1.5s-.672-1.5-1.49996-1.5zm8.49996 1.5c0-.829.672-1.5 1.5-1.5s1.5.671 1.5 1.5-.672 1.5-1.5 1.5-1.5-.671-1.5-1.5zm-13.0002-.5h-4c-.55 0-1 .45-1 1s.45 1 1 1h4c.55 0 1-.45 1-1s-.45-1-1-1zm-4-5h2c.55 0 1 .45 1 1s-.45 1-1 1h-2c-.55 0-1-.45-1-1s.45-1 1-1z" fill="#6b7280" fill-rule="evenodd"/></svg>
